images/UpgradeGraphics/BCHUpgrades_Icons/11.svg

<svg xmlns="http://www.w3.org/2000/svg" fill="none" viewBox="0.5 0.91 570.06 691.09" xmlns:v="https://vecta.io/nano"><use href="#I" transform="matrix(.885556 .464533 -.885556 .464533 166.82 364.769)" fill="url(#A)"/><use href="#J" transform="matrix(.885556 .464533 0 1 47.7969 427.667)" fill="url(#B)"/><use href="#J" transform="matrix(.885556 -.464533 0 1 167.844 491.362)" fill="url(#C)"/><path transform="matrix(.885556 .464533 -.885556 .464533 167.852 374.322)" fill="url(#D)" d="M0 0h111.986v110.827H0z"/><use href="#I" transform="matrix(.885556 .464533 -.885556 .464533 310.531 289.927)" fill="url(#A)"/><use href="#J" transform="matrix(.885556 .464533 0 1 191.508 352.825)" fill="url(#B)"/><use href="#J" transform="matrix(.885556 -.464533 0 1 311.555 416.521)" fill="url(#C)"/><use href="#I" transform="matrix(.885556 .464533 -.885556 .464533 308.781 136.264)" fill="url(#A)"/><use href="#J" transform="matrix(.885556 .464533 0 1 189.758 199.162)" fill="url(#B)"/><use href="#J" transform="matrix(.885556 -.464533 0 1 309.805 262.857)" fill="url(#C)"/><use href="#I" transform="matrix(.885556 .464533 -.885556 .464533 448.117 363.176)" fill="url(#A)"/><use href="#J" transform="matrix(.885556 .464533 0 1 329.094 426.074)" fill="url(#B)"/><use href="#J" transform="matrix(.885556 -.464533 0 1 449.141 489.77)" fill="url(#C)"/><use href="#I" transform="matrix(.885556 .464533 -.885556 .464533 148.422 .912109)" fill="url(#E)"/><use href="#J" transform="matrix(.885556 .464533 0 1 29.3906 63.8105)" fill="url(#F)"/><use href="#J" transform="matrix(.885556 -.464533 0 1 149.445 127.505)" fill="url(#G)"/><use href="#I" transform="matrix(.885556 .464533 -.885556 .464533 310.531 439.609)" fill="url(#A)"/><use href="#J" transform="matrix(.885556 .464533 0 1 191.508 502.508)" fill="url(#B)"/><use href="#J" transform="matrix(.885556 -.464533 0 1 311.555 566.203)" fill="url(#C)"/><use href="#I" transform="matrix(.885556 .464533 -.885556 .464533 446.359 215.881)" fill="url(#A)"/><use href="#J" transform="matrix(.885556 .464533 0 1 327.336 278.779)" fill="url(#B)"/><use href="#J" transform="matrix(.885556 -.464533 0 1 447.383 342.475)" fill="url(#C)"/><path fill-rule="evenodd" d="M203.413 316.973c20.483-13.892 19.33-34.786-3.44-47.932-23.953-13.83-62.758-13.848-86.673-.041s-23.883 36.211.071 50.041c22.769 13.146 58.958 13.812 83.021 1.986l-19.953-11.519c-13.012 5.551-31.463 4.917-43.268-1.899-13.001-7.506-13.018-19.665-.038-27.159s34.04-7.484 47.04.022c11.805 6.816 12.905 17.469 3.288 24.982l19.952 11.519z" fill="#fff" style="mix-blend-mode:screen"/><path d="M.5 87.5H306l-40.882 337.168-96.831 52.362-99.022-52.362L.5 87.5z" fill="url(#H)" style="mix-blend-mode:screen"/><use href="#I" transform="matrix(.885556 .464533 -.885556 .464533 308.781 289.927)" fill="url(#A)"/><use href="#J" transform="matrix(.885556 .464533 0 1 189.758 352.825)" fill="url(#B)"/><use href="#J" transform="matrix(.885556 -.464533 0 1 309.805 416.521)" fill="url(#C)"/><defs><linearGradient id="A" x1="187.119" y1="183.697" x2="13.897" y2="17.037" href="#K"><stop stop-color="#13edb1"/><stop offset="1" stop-color="#13b3d3"/></linearGradient><linearGradient id="B" x1="136.303" y1="0" x2="10.758" y2="135.043" href="#K"><stop stop-color="#13edb1"/><stop offset=".546" stop-color="#13b3d3"/></linearGradient><linearGradient id="C" x1="-49.619" y1="-45.246" x2="173.175" y2="184.21" href="#K"><stop stop-color="#13edb1"/><stop offset=".691" stop-color="#13b3d3"/></linearGradient><linearGradient id="D" x1="152.825" y1="150.357" x2="11.055" y2="14.252" href="#K"><stop offset="1" stop-color="#a7fffe"/></linearGradient><linearGradient id="E" x1="187.119" y1="183.697" x2="13.897" y2="17.037" href="#K"><stop offset=".393" stop-color="#13edb1"/><stop offset="1" stop-color="#13b3d3"/></linearGradient><linearGradient id="F" x1="102.371" y1="110.605" x2="59.197" y2="5.178" href="#K"><stop stop-color="#13edb1"/><stop offset=".808" stop-color="#13b3d3"/></linearGradient><linearGradient id="G" x1="-9.885" y1="115.302" x2="123.744" y2="-13.612" href="#K"><stop stop-color="#13edb1"/><stop offset=".893" stop-color="#13b3d3"/></linearGradient><linearGradient id="H" x1="81.734" y1="424.668" x2="198.18" y2="-143.215" href="#K"><stop stop-color="#a8fffe" stop-opacity=".49"/><stop offset=".381" stop-color="#f9ffff" stop-opacity=".064"/><stop offset=".846" stop-color="#fff" stop-opacity="0"/></linearGradient><path id="I" d="M0 0h137.116v135.402H0z"/><path id="J" d="M0 0h137.116v125.797H0z"/><linearGradient id="K" gradientUnits="userSpaceOnUse"/></defs></svg>

<svg xmlns="http://www.w3.org/2000/svg" fill="none" viewBox="0.5 0.91 570.06 691.09">
<g id="Group 126">
<g id="Group 52">
<rect id="Rectangle 205" width="137.116" height="135.402" transform="matrix(0.885556 0.464533 -0.885556 0.464533 166.82 364.769)" fill="url(#paint0_linear_154_46)"/>
<rect id="Rectangle 206" width="137.116" height="125.797" transform="matrix(0.885556 0.464533 0 1 47.7969 427.667)" fill="url(#paint1_linear_154_46)"/>
<rect id="Rectangle 207" width="137.116" height="125.797" transform="matrix(0.885556 -0.464533 0 1 167.844 491.362)" fill="url(#paint2_linear_154_46)"/>
</g>
<rect id="Rectangle 209" width="111.986" height="110.827" transform="matrix(0.885556 0.464533 -0.885556 0.464533 167.852 374.322)" fill="url(#paint3_linear_154_46)"/>
<g id="Group 61">
<rect id="Rectangle 205_2" width="137.116" height="135.402" transform="matrix(0.885556 0.464533 -0.885556 0.464533 310.531 289.927)" fill="url(#paint4_linear_154_46)"/>
<rect id="Rectangle 206_2" width="137.116" height="125.797" transform="matrix(0.885556 0.464533 0 1 191.508 352.825)" fill="url(#paint5_linear_154_46)"/>
<rect id="Rectangle 207_2" width="137.116" height="125.797" transform="matrix(0.885556 -0.464533 0 1 311.555 416.521)" fill="url(#paint6_linear_154_46)"/>
</g>
<g id="Group 63">
<rect id="Rectangle 205_3" width="137.116" height="135.402" transform="matrix(0.885556 0.464533 -0.885556 0.464533 308.781 136.264)" fill="url(#paint7_linear_154_46)"/>
<rect id="Rectangle 206_3" width="137.116" height="125.797" transform="matrix(0.885556 0.464533 0 1 189.758 199.162)" fill="url(#paint8_linear_154_46)"/>
<rect id="Rectangle 207_3" width="137.116" height="125.797" transform="matrix(0.885556 -0.464533 0 1 309.805 262.857)" fill="url(#paint9_linear_154_46)"/>
</g>
<g id="Group 60">
<rect id="Rectangle 205_4" width="137.116" height="135.402" transform="matrix(0.885556 0.464533 -0.885556 0.464533 448.117 363.176)" fill="url(#paint10_linear_154_46)"/>
<rect id="Rectangle 206_4" width="137.116" height="125.797" transform="matrix(0.885556 0.464533 0 1 329.094 426.074)" fill="url(#paint11_linear_154_46)"/>
<rect id="Rectangle 207_4" width="137.116" height="125.797" transform="matrix(0.885556 -0.464533 0 1 449.141 489.77)" fill="url(#paint12_linear_154_46)"/>
</g>
<rect id="Rectangle 205_5" width="137.116" height="135.402" transform="matrix(0.885556 0.464533 -0.885556 0.464533 148.422 0.912109)" fill="url(#paint13_linear_154_46)"/>
<rect id="Rectangle 206_5" width="137.116" height="125.797" transform="matrix(0.885556 0.464533 0 1 29.3906 63.8105)" fill="url(#paint14_linear_154_46)"/>
<rect id="Rectangle 207_5" width="137.116" height="125.797" transform="matrix(0.885556 -0.464533 0 1 149.445 127.505)" fill="url(#paint15_linear_154_46)"/>
<g id="Group 56">
<rect id="Rectangle 205_6" width="137.116" height="135.402" transform="matrix(0.885556 0.464533 -0.885556 0.464533 310.531 439.609)" fill="url(#paint16_linear_154_46)"/>
<rect id="Rectangle 206_6" width="137.116" height="125.797" transform="matrix(0.885556 0.464533 0 1 191.508 502.508)" fill="url(#paint17_linear_154_46)"/>
<rect id="Rectangle 207_6" width="137.116" height="125.797" transform="matrix(0.885556 -0.464533 0 1 311.555 566.203)" fill="url(#paint18_linear_154_46)"/>
</g>
<g id="Group 65">
<rect id="Rectangle 205_7" width="137.116" height="135.402" transform="matrix(0.885556 0.464533 -0.885556 0.464533 446.359 215.881)" fill="url(#paint19_linear_154_46)"/>
<rect id="Rectangle 206_7" width="137.116" height="125.797" transform="matrix(0.885556 0.464533 0 1 327.336 278.779)" fill="url(#paint20_linear_154_46)"/>
<rect id="Rectangle 207_7" width="137.116" height="125.797" transform="matrix(0.885556 -0.464533 0 1 447.383 342.475)" fill="url(#paint21_linear_154_46)"/>
</g>
<g id="Group 67" style="mix-blend-mode:screen">
<path id="Subtract" fill-rule="evenodd" clip-rule="evenodd" d="M203.413 316.973C223.896 303.081 222.743 282.187 199.973 269.041C176.02 255.211 137.215 255.193 113.3 269C89.3857 282.807 89.4171 305.211 113.371 319.041C136.14 332.187 172.329 332.853 196.392 321.027L176.439 309.508C163.427 315.059 144.976 314.425 133.171 307.609C120.17 300.103 120.153 287.944 133.133 280.45C146.112 272.957 167.173 272.966 180.173 280.472C191.978 287.288 193.078 297.941 183.461 305.454L203.413 316.973Z" fill="white"/>
</g>
<g id="Rectangle 208" style="mix-blend-mode:screen">
<path d="M0.5 87.5H306L265.118 424.668L168.287 477.03L69.2647 424.668L0.5 87.5Z" fill="url(#paint22_linear_154_46)"/>
</g>
<g id="Group 64">
<rect id="Rectangle 205_8" width="137.116" height="135.402" transform="matrix(0.885556 0.464533 -0.885556 0.464533 308.781 289.927)" fill="url(#paint23_linear_154_46)"/>
<rect id="Rectangle 206_8" width="137.116" height="125.797" transform="matrix(0.885556 0.464533 0 1 189.758 352.825)" fill="url(#paint24_linear_154_46)"/>
<rect id="Rectangle 207_8" width="137.116" height="125.797" transform="matrix(0.885556 -0.464533 0 1 309.805 416.521)" fill="url(#paint25_linear_154_46)"/>
</g>
</g>
<defs>
<linearGradient id="paint0_linear_154_46" x1="187.119" y1="183.697" x2="13.8968" y2="17.0372" gradientUnits="userSpaceOnUse">
<stop stop-color="#13EDB1"/>
<stop offset="1" stop-color="#13B3D3"/>
</linearGradient>
<linearGradient id="paint1_linear_154_46" x1="136.303" y1="-2.91329e-06" x2="10.7578" y2="135.043" gradientUnits="userSpaceOnUse">
<stop stop-color="#13EDB1"/>
<stop offset="0.546187" stop-color="#13B3D3"/>
</linearGradient>
<linearGradient id="paint2_linear_154_46" x1="-49.6192" y1="-45.2464" x2="173.175" y2="184.21" gradientUnits="userSpaceOnUse">
<stop stop-color="#13EDB1"/>
<stop offset="0.690568" stop-color="#13B3D3"/>
</linearGradient>
<linearGradient id="paint3_linear_154_46" x1="152.825" y1="150.357" x2="11.0549" y2="14.2524" gradientUnits="userSpaceOnUse">
<stop offset="1" stop-color="#A7FFFE"/>
</linearGradient>
<linearGradient id="paint4_linear_154_46" x1="187.119" y1="183.697" x2="13.8968" y2="17.0372" gradientUnits="userSpaceOnUse">
<stop stop-color="#13EDB1"/>
<stop offset="1" stop-color="#13B3D3"/>
</linearGradient>
<linearGradient id="paint5_linear_154_46" x1="136.303" y1="-2.91329e-06" x2="10.7578" y2="135.043" gradientUnits="userSpaceOnUse">
<stop stop-color="#13EDB1"/>
<stop offset="0.546187" stop-color="#13B3D3"/>
</linearGradient>
<linearGradient id="paint6_linear_154_46" x1="-49.6192" y1="-45.2464" x2="173.175" y2="184.21" gradientUnits="userSpaceOnUse">
<stop stop-color="#13EDB1"/>
<stop offset="0.690568" stop-color="#13B3D3"/>
</linearGradient>
<linearGradient id="paint7_linear_154_46" x1="187.119" y1="183.697" x2="13.8968" y2="17.0372" gradientUnits="userSpaceOnUse">
<stop stop-color="#13EDB1"/>
<stop offset="1" stop-color="#13B3D3"/>
</linearGradient>
<linearGradient id="paint8_linear_154_46" x1="136.303" y1="-2.91329e-06" x2="10.7578" y2="135.043" gradientUnits="userSpaceOnUse">
<stop stop-color="#13EDB1"/>
<stop offset="0.546187" stop-color="#13B3D3"/>
</linearGradient>
<linearGradient id="paint9_linear_154_46" x1="-49.6192" y1="-45.2464" x2="173.175" y2="184.21" gradientUnits="userSpaceOnUse">
<stop stop-color="#13EDB1"/>
<stop offset="0.690568" stop-color="#13B3D3"/>
</linearGradient>
<linearGradient id="paint10_linear_154_46" x1="187.119" y1="183.697" x2="13.8968" y2="17.0372" gradientUnits="userSpaceOnUse">
<stop stop-color="#13EDB1"/>
<stop offset="1" stop-color="#13B3D3"/>
</linearGradient>
<linearGradient id="paint11_linear_154_46" x1="136.303" y1="-2.91329e-06" x2="10.7578" y2="135.043" gradientUnits="userSpaceOnUse">
<stop stop-color="#13EDB1"/>
<stop offset="0.546187" stop-color="#13B3D3"/>
</linearGradient>
<linearGradient id="paint12_linear_154_46" x1="-49.6192" y1="-45.2464" x2="173.175" y2="184.21" gradientUnits="userSpaceOnUse">
<stop stop-color="#13EDB1"/>
<stop offset="0.690568" stop-color="#13B3D3"/>
</linearGradient>
<linearGradient id="paint13_linear_154_46" x1="187.119" y1="183.697" x2="13.8968" y2="17.0372" gradientUnits="userSpaceOnUse">
<stop offset="0.393448" stop-color="#13EDB1"/>
<stop offset="1" stop-color="#13B3D3"/>
</linearGradient>
<linearGradient id="paint14_linear_154_46" x1="102.371" y1="110.605" x2="59.1971" y2="5.17834" gradientUnits="userSpaceOnUse">
<stop stop-color="#13EDB1"/>
<stop offset="0.807768" stop-color="#13B3D3"/>
</linearGradient>
<linearGradient id="paint15_linear_154_46" x1="-9.88454" y1="115.302" x2="123.744" y2="-13.6116" gradientUnits="userSpaceOnUse">
<stop stop-color="#13EDB1"/>
<stop offset="0.89266" stop-color="#13B3D3"/>
</linearGradient>
<linearGradient id="paint16_linear_154_46" x1="187.119" y1="183.697" x2="13.8968" y2="17.0372" gradientUnits="userSpaceOnUse">
<stop stop-color="#13EDB1"/>
<stop offset="1" stop-color="#13B3D3"/>
</linearGradient>
<linearGradient id="paint17_linear_154_46" x1="136.303" y1="-2.91329e-06" x2="10.7578" y2="135.043" gradientUnits="userSpaceOnUse">
<stop stop-color="#13EDB1"/>
<stop offset="0.546187" stop-color="#13B3D3"/>
</linearGradient>
<linearGradient id="paint18_linear_154_46" x1="-49.6192" y1="-45.2464" x2="173.175" y2="184.21" gradientUnits="userSpaceOnUse">
<stop stop-color="#13EDB1"/>
<stop offset="0.690568" stop-color="#13B3D3"/>
</linearGradient>
<linearGradient id="paint19_linear_154_46" x1="187.119" y1="183.697" x2="13.8968" y2="17.0372" gradientUnits="userSpaceOnUse">
<stop stop-color="#13EDB1"/>
<stop offset="1" stop-color="#13B3D3"/>
</linearGradient>
<linearGradient id="paint20_linear_154_46" x1="136.303" y1="-2.91329e-06" x2="10.7578" y2="135.043" gradientUnits="userSpaceOnUse">
<stop stop-color="#13EDB1"/>
<stop offset="0.546187" stop-color="#13B3D3"/>
</linearGradient>
<linearGradient id="paint21_linear_154_46" x1="-49.6192" y1="-45.2464" x2="173.175" y2="184.21" gradientUnits="userSpaceOnUse">
<stop stop-color="#13EDB1"/>
<stop offset="0.690568" stop-color="#13B3D3"/>
</linearGradient>
<linearGradient id="paint22_linear_154_46" x1="81.7338" y1="424.668" x2="198.18" y2="-143.215" gradientUnits="userSpaceOnUse">
<stop stop-color="#A8FFFE" stop-opacity="0.49"/>
<stop offset="0.381024" stop-color="#F9FFFF" stop-opacity="0.0639424"/>
<stop offset="0.845698" stop-color="white" stop-opacity="0"/>
</linearGradient>
<linearGradient id="paint23_linear_154_46" x1="187.119" y1="183.697" x2="13.8968" y2="17.0372" gradientUnits="userSpaceOnUse">
<stop stop-color="#13EDB1"/>
<stop offset="1" stop-color="#13B3D3"/>
</linearGradient>
<linearGradient id="paint24_linear_154_46" x1="136.303" y1="-2.91329e-06" x2="10.7578" y2="135.043" gradientUnits="userSpaceOnUse">
<stop stop-color="#13EDB1"/>
<stop offset="0.546187" stop-color="#13B3D3"/>
</linearGradient>
<linearGradient id="paint25_linear_154_46" x1="-49.6192" y1="-45.2464" x2="173.175" y2="184.21" gradientUnits="userSpaceOnUse">
<stop stop-color="#13EDB1"/>
<stop offset="0.690568" stop-color="#13B3D3"/>
</linearGradient>
</defs>
</svg>
